openmetadata-ui/src/main/resources/ui/src/assets/svg/mlmodal.svg

<svg width="16" height="16" viewBox="0 0 16 16" fill="none" xmlns="http://www.w3.org/2000/svg">
<path d="M3.366 9.2C3.1035 9.07325 2.8105 9 2.5 9C1.39725 9 0.5 9.89725 0.5 11C0.5 12.1027 1.39725 13 2.5 13C3.192 13 3.80275 12.6465 4.162 12.1108L6.05125 13.0565C6.01875 13.1993 6 13.3475 6 13.5C6 14.6027 6.89725 15.5 8 15.5C9.10275 15.5 10 14.6027 10 13.5C10 13.0855 9.87325 12.7002 9.65625 12.3805L12.311 9.60475C12.644 9.85175 13.0545 10 13.5 10C14.6027 10 15.5 9.10275 15.5 8C15.5 6.89725 14.6027 6 13.5 6C13.0385 6 12.6145 6.1585 12.2755 6.422L9.578 3.7245C9.8415 3.3855 10 2.9615 10 2.5C10 1.39725 9.10275 0.5 8 0.5C6.89725 0.5 6 1.39725 6 2.5C6 2.652 6.0185 2.79975 6.051 2.94225L4.278 3.58825C3.9455 2.943 3.27425 2.5 2.5 2.5C1.39725 2.5 0.5 3.39725 0.5 4.5C0.5 5.60275 1.39725 6.5 2.5 6.5C2.7845 6.5 3.05475 6.4395 3.3 6.33175L4.22025 7.8805L3.366 9.2ZM2.5 12.5C1.67275 12.5 1 11.8273 1 11C1 10.1727 1.67275 9.5 2.5 9.5C3.32725 9.5 4 10.1727 4 11C4 11.8273 3.32725 12.5 2.5 12.5ZM4.38475 11.6628C4.458 11.455 4.5 11.2325 4.5 11C4.5 10.3867 4.222 9.83775 3.78625 9.47075L4.50525 8.36025L6.673 12.008C6.4905 12.1705 6.33775 12.365 6.2245 12.5837L4.38475 11.6628ZM8 4.5C8.4615 4.5 8.8855 4.3415 9.2245 4.078L11.9222 6.77575C11.7605 6.98375 11.6395 7.224 11.5697 7.4855L9.99925 7.2695C9.999 7.263 10 7.2565 10 7.25C10 6.14725 9.10275 5.25 8 5.25C7.308 5.25 6.697 5.6035 6.338 6.13925L6.03975 5.99025L7.13425 4.3C7.3965 4.42675 7.6895 4.5 8 4.5ZM8.25 11.5173V9.2325C9.0625 9.1305 9.7235 8.54 9.9305 7.7645L11.501 7.9805C11.501 7.987 11.5 7.9935 11.5 8C11.5 8.4775 11.6685 8.91575 11.9487 9.26L9.32375 12.0048C9.0295 11.744 8.65925 11.5688 8.25 11.5173V11.5173ZM8 5.75C8.82725 5.75 9.5 6.42275 9.5 7.25C9.5 8.07725 8.82725 8.75 8 8.75C7.17275 8.75 6.5 8.07725 6.5 7.25C6.5 6.42275 7.17275 5.75 8 5.75V5.75ZM6.11525 6.58725C6.042 6.795 6 7.0175 6 7.25C6 8.268 6.765 9.109 7.75 9.23275V11.5175C7.513 11.5472 7.28925 11.6183 7.0855 11.7235L4.8085 7.89175L5.76625 6.41275L6.11525 6.58725ZM8 15C7.17275 15 6.5 14.3273 6.5 13.5C6.5 12.6727 7.17275 12 8 12C8.82725 12 9.5 12.6727 9.5 13.5C9.5 14.3273 8.82725 15 8 15ZM13.5 6.5C14.3273 6.5 15 7.17275 15 8C15 8.82725 14.3273 9.5 13.5 9.5C12.6727 9.5 12 8.82725 12 8C12 7.17275 12.6727 6.5 13.5 6.5ZM8 1C8.82725 1 9.5 1.67275 9.5 2.5C9.5 3.32725 8.82725 4 8 4C7.17275 4 6.5 3.32725 6.5 2.5C6.5 1.67275 7.17275 1 8 1ZM6.222 3.41175C6.34425 3.649 6.5115 3.85875 6.71375 4.02925L5.58975 5.76525L4.38475 5.16275C4.458 4.955 4.5 4.7325 4.5 4.5C4.5 4.348 4.4815 4.20025 4.449 4.05775L6.222 3.41175ZM1 4.5C1 3.67275 1.67275 3 2.5 3C3.32725 3 4 3.67275 4 4.5C4 5.32725 3.32725 6 2.5 6C1.67275 6 1 5.32725 1 4.5ZM3.72875 6.07475C3.89625 5.94375 4.04325 5.78775 4.162 5.61075L5.31625 6.18775L4.5235 7.412L3.72875 6.07475Z" fill="#37352F" stroke="#37352F" stroke-width="0.3"/>
</svg>

<svg xmlns="http://www.w3.org/2000/svg" width="16" height="16" fill="currentColor"><path stroke="currentColor" stroke-width=".3" d="M3.366 9.2A1.985 1.985 0 0 0 2.5 9c-1.103 0-2 .897-2 2s.897 2 2 2a2 2 0 0 0 1.662-.89l1.89.947A2.002 2.002 0 0 0 8 15.5c1.102-.001 1.999-.898 1.999-2.001 0-.415-.127-.8-.344-1.12l2.655-2.775A1.99 1.99 0 0 0 13.5 10c1.103 0 2-.897 2-2s-.897-2-2-2c-.461 0-.886.159-1.225.422L9.578 3.725C9.842 3.385 10 2.96 10 2.5c0-1.103-.897-2-2-2a2.002 2.002 0 0 0-1.949 2.442l-1.773.646A2 2 0 0 0 2.5 2.5c-1.103 0-2 .897-2 2a2.002 2.002 0 0 0 2.8 1.832l.92 1.548-.854 1.32ZM2.5 12.5c-.827 0-1.5-.673-1.5-1.5s.673-1.5 1.5-1.5S4 10.173 4 11s-.673 1.5-1.5 1.5Zm1.885-.837a1.989 1.989 0 0 0-.599-2.192l.72-1.11 2.167 3.647a2.008 2.008 0 0 0-.449.576l-1.84-.921ZM8 4.5c.461 0 .886-.159 1.225-.422l2.697 2.698a1.993 1.993 0 0 0-.352.71L10 7.27v-.02a1.999 1.999 0 0 0-3.662-1.11l-.298-.15L7.134 4.3c.262.127.555.2.866.2Zm.25 7.017V9.233a2.003 2.003 0 0 0 1.68-1.469l1.571.216L11.5 8c0 .477.168.916.449 1.26l-2.625 2.745a1.991 1.991 0 0 0-1.074-.488ZM8 5.75c.827 0 1.5.673 1.5 1.5s-.673 1.5-1.5 1.5-1.5-.673-1.5-1.5.673-1.5 1.5-1.5Zm-1.885.837c-.073.208-.115.43-.115.663 0 1.018.765 1.859 1.75 1.983v2.284c-.237.03-.46.101-.665.207L4.81 7.891l.957-1.48.35.175ZM8 15c-.827 0-1.5-.673-1.5-1.5S7.173 12 8 12s1.5.673 1.5 1.5S8.827 15 8 15Zm5.5-8.5c.827 0 1.5.673 1.5 1.5s-.673 1.5-1.5 1.5S12 8.827 12 8s.673-1.5 1.5-1.5ZM8 1c.827 0 1.5.673 1.5 1.5S8.827 4 8 4s-1.5-.673-1.5-1.5S7.173 1 8 1ZM6.222 3.412c.122.237.29.447.492.617L5.59 5.765l-1.205-.602a1.988 1.988 0 0 0 .064-1.105l1.773-.646ZM1 4.5C1 3.673 1.673 3 2.5 3S4 3.673 4 4.5 3.327 6 2.5 6 1 5.327 1 4.5Zm2.729 1.575c.167-.131.314-.287.433-.464l1.154.577-.792 1.224-.795-1.337Z"/></svg>
